Lightroom-Presets-master/Azh_cn-special/特殊功能-亮角+冷调.lrtemplate
s = {
	id = "9746D530-3354-46AF-895A-7DBD2451E006",
	internalName = "亮角+冷调",
	title = "特殊功能-亮角+冷调",
	type = "Develop",
	value = {
		settings = {
			AutoBrightness = false,
			AutoContrast = false,
			AutoExposure = false,
			AutoShadows = false,
			BlueHue = 0,
			BlueSaturation = 0,
			Brightness = 0,
			CameraProfile = "Embedded",
			ChromaticAberrationB = 0,
			ChromaticAberrationR = 0,
			Clarity = 3,
			ColorNoiseReduction = 0,
			Contrast = 52,
			ConvertToGrayscale = false,
			Defringe = 0,
			EnableCalibration = true,
			EnableColorAdjustments = true,
			EnableDetail = true,
			EnableGradientBasedCorrections = true,
			EnableGrayscaleMix = true,
			EnableSplitToning = true,
			EnableVignettes = true,
			Exposure = 0.8,
			FillLight = 0,
			GradientBasedCorrections = {
				{
					CorrectionActive = true,
					CorrectionAmount = 1,
					CorrectionID = "431F4DEF-B23F-4C54-A56B-A9FB0A0A8BDD",
					CorrectionMasks = {
						{
							FullX = 1.04541,
							FullY = 0.462772,
							MaskID = "03DACECA-81B2-4FF2-8BB8-7F071EEA1DC1",
							MaskValue = 1,
							What = "Mask/Gradient",
							ZeroX = 0.688774,
							ZeroY = 0.437198,
						},
					},
					CorrectionReferenceX = 0.867093,
					CorrectionReferenceY = 0.449985,
					LocalBrightness = 0,
					LocalClarity = -1,
					LocalContrast = 0,
					LocalExposure = 0,
					LocalSaturation = 0,
					LocalSharpness = 0.25,
					LocalToningHue = 240,
					LocalToningSaturation = 0,
					What = "Correction",
				},
				{
					CorrectionActive = true,
					CorrectionAmount = 1,
					CorrectionID = "793000E6-066D-4379-9EAB-3B2CA8D808DE",
					CorrectionMasks = {
						{
							FullX = 0.168215,
							FullY = 1.07899,
							MaskID = "EA2FE4E1-B241-4E6F-BF31-F2EE76B0F0A3",
							MaskValue = 1,
							What = "Mask/Gradient",
							ZeroX = 0.267241,
							ZeroY = 0.713362,
						},
					},
					CorrectionReferenceX = 0.217728,
					CorrectionReferenceY = 0.896178,
					LocalBrightness = 0,
					LocalClarity = -1,
					LocalContrast = 0,
					LocalExposure = 0,
					LocalSaturation = 0,
					LocalSharpness = 0.25,
					LocalToningHue = 240,
					LocalToningSaturation = 0,
					What = "Correction",
				},
			},
			GreenHue = 0,
			GreenSaturation = 0,
			HighlightRecovery = 0,
			HueAdjustmentAqua = 0,
			HueAdjustmentBlue = 0,
			HueAdjustmentGreen = 0,
			HueAdjustmentMagenta = 0,
			HueAdjustmentOrange = 0,
			HueAdjustmentPurple = 0,
			HueAdjustmentRed = 0,
			HueAdjustmentYellow = 0,
			LuminanceAdjustmentAqua = 0,
			LuminanceAdjustmentBlue = 0,
			LuminanceAdjustmentGreen = 0,
			LuminanceAdjustmentMagenta = 0,
			LuminanceAdjustmentOrange = 0,
			LuminanceAdjustmentPurple = 0,
			LuminanceAdjustmentRed = 0,
			LuminanceAdjustmentYellow = 0,
			LuminanceSmoothing = 0,
			ParametricDarks = 0,
			ParametricHighlightSplit = 75,
			ParametricHighlights = 15,
			ParametricLights = 0,
			ParametricMidtoneSplit = 50,
			ParametricShadowSplit = 25,
			ParametricShadows = 0,
			PostCropVignetteAmount = 64,
			PostCropVignetteFeather = 50,
			PostCropVignetteMidpoint = 70,
			PostCropVignetteRoundness = 0,
			RedHue = 0,
			RedSaturation = 0,
			Saturation = -34,
			SaturationAdjustmentAqua = 0,
			SaturationAdjustmentBlue = 0,
			SaturationAdjustmentGreen = 0,
			SaturationAdjustmentMagenta = 0,
			SaturationAdjustmentOrange = 0,
			SaturationAdjustmentPurple = 0,
			SaturationAdjustmentRed = 0,
			SaturationAdjustmentYellow = 0,
			ShadowTint = 0,
			Shadows = 9,
			SharpenDetail = 25,
			SharpenEdgeMasking = 0,
			SharpenRadius = 1,
			Sharpness = 23,
			SplitToningBalance = 0,
			SplitToningHighlightHue = 13,
			SplitToningHighlightSaturation = 7,
			SplitToningShadowHue = 0,
			SplitToningShadowSaturation = 2,
			Temperature = 4554,
			Tint = 5,
			ToneCurve = {
				0,
				0,
				255,
				255,
			},
			ToneCurveName = "Linear",
			Vibrance = -20,
			VignetteAmount = 96,
			VignetteMidpoint = 59,
			WhiteBalance = "Custom",
		},
		uuid = "1E20DAA6-DBB4-4CAA-B07D-C3A8AC3AC4F5",
	},
	version = 0,
}
