Lightroom-Presets-master/Azh_cn-special/特殊功能-暗角+LOMO色彩.lrtemplate
s = {
	id = "58260D7A-F998-471D-A8A2-EF4F4B496478",
	internalName = "LOMO色彩",
	title = "特殊功能-暗角+LOMO色彩",
	type = "Develop",
	value = {
		settings = {
			AutoBrightness = false,
			AutoContrast = false,
			AutoExposure = false,
			AutoShadows = false,
			Brightness = 3,
			ChromaticAberrationB = 0,
			ChromaticAberrationR = 0,
			ColorNoiseReduction = 0,
			Contrast = 15,
			ConvertToGrayscale = false,
			EnableColorAdjustments = true,
			EnableDetail = true,
			EnableGrayscaleMix = true,
			EnableLensCorrections = true,
			Exposure = 1.15,
			FillLight = 0,
			HighlightRecovery = 0,
			HueAdjustmentAqua = 0,
			HueAdjustmentBlue = 0,
			HueAdjustmentGreen = 0,
			HueAdjustmentMagenta = 0,
			HueAdjustmentOrange = 0,
			HueAdjustmentPurple = 0,
			HueAdjustmentRed = 0,
			HueAdjustmentYellow = 0,
			IncrementalTemperature = 0,
			IncrementalTint = 10,
			LuminanceAdjustmentAqua = 0,
			LuminanceAdjustmentBlue = 0,
			LuminanceAdjustmentGreen = 0,
			LuminanceAdjustmentMagenta = 0,
			LuminanceAdjustmentOrange = 0,
			LuminanceAdjustmentPurple = 0,
			LuminanceAdjustmentRed = 0,
			LuminanceAdjustmentYellow = 0,
			LuminanceSmoothing = 0,
			ParametricDarks = -20,
			ParametricHighlightSplit = 75,
			ParametricHighlights = 100,
			ParametricLights = -6,
			ParametricMidtoneSplit = 50,
			ParametricShadowSplit = 25,
			ParametricShadows = -100,
			Saturation = 0,
			SaturationAdjustmentAqua = 75,
			SaturationAdjustmentBlue = 55,
			SaturationAdjustmentGreen = 0,
			SaturationAdjustmentMagenta = 0,
			SaturationAdjustmentOrange = 0,
			SaturationAdjustmentPurple = 0,
			SaturationAdjustmentRed = 25,
			SaturationAdjustmentYellow = 0,
			Shadows = 14,
			ToneCurve = {
				0,
				0,
				255,
				255,
			},
			Vibrance = 0,
			VignetteAmount = -100,
			VignetteMidpoint = 28,
			WhiteBalance = "Custom",
		},
		uuid = "C249FEB3-5B52-42F8-9A6A-7CDE6F39B61D",
	},
	version = 0,
}
