Lightroom-Presets-master/Azh_cn-special/特殊功能-偏色渲染-褪色高饱和.lrtemplate
s = {
	id = "0DC6FB04-858C-4CC5-9E06-4B195948749E",
	internalName = "褪色色调—高饱和",
	title = "特殊功能-偏色渲染-褪色高饱和",
	type = "Develop",
	value = {
		settings = {
			AutoBrightness = false,
			AutoContrast = false,
			AutoExposure = false,
			AutoShadows = false,
			Brightness = 50,
			Clarity = 45,
			Contrast = 20,
			ConvertToGrayscale = false,
			EnableColorAdjustments = true,
			EnableLensCorrections = true,
			Exposure = 0.66,
			FillLight = 10,
			HighlightRecovery = 10,
			HueAdjustmentAqua = 0,
			HueAdjustmentBlue = 0,
			HueAdjustmentGreen = 0,
			HueAdjustmentMagenta = 0,
			HueAdjustmentOrange = 0,
			HueAdjustmentPurple = 0,
			HueAdjustmentRed = 0,
			HueAdjustmentYellow = 0,
			IncrementalTemperature = -20,
			IncrementalTint = -35,
			LuminanceAdjustmentAqua = 0,
			LuminanceAdjustmentBlue = 0,
			LuminanceAdjustmentGreen = 0,
			LuminanceAdjustmentMagenta = 0,
			LuminanceAdjustmentOrange = 0,
			LuminanceAdjustmentPurple = 0,
			LuminanceAdjustmentRed = 0,
			LuminanceAdjustmentYellow = 0,
			ParametricDarks = 0,
			ParametricHighlightSplit = 75,
			ParametricHighlights = 0,
			ParametricLights = 0,
			ParametricMidtoneSplit = 50,
			ParametricShadowSplit = 25,
			ParametricShadows = 0,
			Saturation = -15,
			SaturationAdjustmentAqua = -30,
			SaturationAdjustmentBlue = -10,
			SaturationAdjustmentGreen = -40,
			SaturationAdjustmentMagenta = -5,
			SaturationAdjustmentOrange = -30,
			SaturationAdjustmentPurple = -30,
			SaturationAdjustmentRed = -40,
			SaturationAdjustmentYellow = -30,
			Shadows = 10,
			ToneCurve = {
				0,
				0,
				32,
				22,
				64,
				56,
				128,
				128,
				192,
				196,
				255,
				255,
			},
			ToneCurveName = "Medium Contrast",
			Vibrance = -10,
			VignetteAmount = -42,
			VignetteMidpoint = 30,
			WhiteBalance = "Custom",
		},
		uuid = "E6383833-D900-4960-8A0A-095BDCE3A6F8",
	},
	version = 0,
}
