Lightroom-Presets-master/Azh_cn-landscape/秋天童话-秋风瑟瑟.lrtemplate
s = {
	id = "B7F7E504-7A76-4AEC-9C78-21B046C70DBD",
	internalName = "秋风瑟瑟（黄色渲染）",
	title = "秋天童话-秋风瑟瑟",
	type = "Develop",
	value = {
		settings = {
			AutoBrightness = false,
			AutoContrast = false,
			AutoExposure = false,
			AutoShadows = false,
			BlueHue = 0,
			BlueSaturation = 63,
			Brightness = 57,
			CameraProfile = "ACR 2.4",
			ChromaticAberrationB = 0,
			ChromaticAberrationR = 0,
			Clarity = 11,
			Contrast = 12,
			ConvertToGrayscale = true,
			Defringe = 0,
			EnableCalibration = true,
			EnableColorAdjustments = true,
			EnableDetail = true,
			EnableGrayscaleMix = true,
			EnableLensCorrections = true,
			EnableSplitToning = true,
			Exposure = -0.52,
			FillLight = 6,
			GrayMixerAqua = -6,
			GrayMixerBlue = -2,
			GrayMixerGreen = -21,
			GrayMixerMagenta = 8,
			GrayMixerOrange = -22,
			GrayMixerPurple = 20,
			GrayMixerRed = 22,
			GrayMixerYellow = 15,
			GreenHue = 0,
			GreenSaturation = 0,
			HighlightRecovery = 0,
			IncrementalTemperature = 22,
			IncrementalTint = 58,
			LuminanceSmoothing = 0,
			ParametricDarks = -2,
			ParametricHighlightSplit = 75,
			ParametricHighlights = 1,
			ParametricLights = 2,
			ParametricMidtoneSplit = 50,
			ParametricShadowSplit = 25,
			ParametricShadows = -20,
			RedHue = 0,
			RedSaturation = -81,
			ShadowTint = 0,
			Shadows = 18,
			SharpenDetail = 25,
			SharpenEdgeMasking = 0,
			SharpenRadius = 1,
			Sharpness = 11,
			SplitToningBalance = 0,
			SplitToningHighlightHue = 51,
			SplitToningHighlightSaturation = 52,
			SplitToningShadowHue = 30,
			SplitToningShadowSaturation = 28,
			ToneCurve = {
				0,
				0,
				255,
				255,
			},
			ToneCurveName = "Linear",
			VignetteAmount = -15,
			VignetteMidpoint = 48,
			WhiteBalance = "Custom",
		},
		uuid = "B79814F4-4CAA-48D3-A908-E27F0C85D4DA",
	},
	version = 0,
}
