Lightroom-Presets-master/Azh_cn-landscape/那年夏天-仲夏夜2.lrtemplate
s = {
	id = "07CFFCF5-3A22-4F7D-AD05-59CCBC6B95CE",
	internalName = "夏日傍晚",
	title = "那年夏天-仲夏夜2",
	type = "Develop",
	value = {
		settings = {
			AutoBrightness = false,
			AutoContrast = false,
			AutoExposure = false,
			AutoShadows = false,
			BlueHue = 0,
			BlueSaturation = 0,
			Brightness = 12,
			CameraProfile = "Embedded",
			ChromaticAberrationB = 0,
			ChromaticAberrationR = 0,
			Clarity = 2,
			ColorNoiseReduction = 44,
			Contrast = 8,
			ConvertToGrayscale = false,
			Defringe = 0,
			EnableCalibration = true,
			EnableColorAdjustments = true,
			EnableDetail = true,
			EnableGrayscaleMix = true,
			EnableLensCorrections = true,
			EnableSplitToning = true,
			Exposure = 0.99,
			FillLight = 4,
			GreenHue = 0,
			GreenSaturation = 0,
			HighlightRecovery = 15,
			HueAdjustmentAqua = 6,
			HueAdjustmentBlue = 11,
			HueAdjustmentGreen = 6,
			HueAdjustmentMagenta = 0,
			HueAdjustmentOrange = -8,
			HueAdjustmentPurple = 8,
			HueAdjustmentRed = -6,
			HueAdjustmentYellow = -6,
			LuminanceAdjustmentAqua = 0,
			LuminanceAdjustmentBlue = 0,
			LuminanceAdjustmentGreen = 0,
			LuminanceAdjustmentMagenta = 0,
			LuminanceAdjustmentOrange = 0,
			LuminanceAdjustmentPurple = 0,
			LuminanceAdjustmentRed = 0,
			LuminanceAdjustmentYellow = 0,
			LuminanceSmoothing = 40,
			ParametricDarks = -29,
			ParametricHighlightSplit = 75,
			ParametricHighlights = 0,
			ParametricLights = 0,
			ParametricMidtoneSplit = 50,
			ParametricShadowSplit = 25,
			ParametricShadows = -74,
			RedHue = 0,
			RedSaturation = 0,
			Saturation = 0,
			SaturationAdjustmentAqua = 0,
			SaturationAdjustmentBlue = 0,
			SaturationAdjustmentGreen = 0,
			SaturationAdjustmentMagenta = 0,
			SaturationAdjustmentOrange = 0,
			SaturationAdjustmentPurple = 0,
			SaturationAdjustmentRed = 0,
			SaturationAdjustmentYellow = 0,
			ShadowTint = 0,
			Shadows = 12,
			SharpenDetail = 25,
			SharpenEdgeMasking = 0,
			SharpenRadius = 1,
			Sharpness = 21,
			SplitToningBalance = 48,
			SplitToningHighlightHue = 8,
			SplitToningHighlightSaturation = 0,
			SplitToningShadowHue = 30,
			SplitToningShadowSaturation = 22,
			ToneCurve = {
				0,
				0,
				255,
				255,
			},
			ToneCurveName = "Linear",
			Vibrance = 29,
			VignetteAmount = -100,
			VignetteMidpoint = 33,
			WhiteBalance = "As Shot",
		},
		uuid = "491E51C6-F351-4371-8475-BC0CBBEED199",
	},
	version = 0,
}
