Lightroom-Presets-master/Azh_cn-landscape/那年夏天-萤火虫之舞1.lrtemplate
s = {
	id = "3D01722A-5C96-4E9B-89B0-246FA0216BCF",
	internalName = "午夜阴影1",
	title = "那年夏天-萤火虫之舞1",
	type = "Develop",
	value = {
		settings = {
			AutoBrightness = false,
			AutoContrast = false,
			Brightness = 31,
			ChromaticAberrationB = 0,
			ChromaticAberrationR = 0,
			Clarity = 57,
			Contrast = 28,
			ConvertToGrayscale = false,
			Defringe = 0,
			EnableColorAdjustments = true,
			EnableGrayscaleMix = true,
			EnableLensCorrections = true,
			HueAdjustmentAqua = 0,
			HueAdjustmentBlue = 0,
			HueAdjustmentGreen = 0,
			HueAdjustmentMagenta = 0,
			HueAdjustmentOrange = 0,
			HueAdjustmentPurple = 0,
			HueAdjustmentRed = 0,
			HueAdjustmentYellow = 0,
			IncrementalTemperature = -8,
			IncrementalTint = 0,
			LuminanceAdjustmentAqua = -1,
			LuminanceAdjustmentBlue = -88,
			LuminanceAdjustmentGreen = 0,
			LuminanceAdjustmentMagenta = 0,
			LuminanceAdjustmentOrange = 0,
			LuminanceAdjustmentPurple = 0,
			LuminanceAdjustmentRed = 0,
			LuminanceAdjustmentYellow = 0,
			ParametricDarks = 0,
			ParametricHighlightSplit = 75,
			ParametricHighlights = -66,
			ParametricLights = 0,
			ParametricMidtoneSplit = 50,
			ParametricShadowSplit = 25,
			ParametricShadows = 0,
			Saturation = 0,
			SaturationAdjustmentAqua = 0,
			SaturationAdjustmentBlue = 0,
			SaturationAdjustmentGreen = 0,
			SaturationAdjustmentMagenta = 0,
			SaturationAdjustmentOrange = 0,
			SaturationAdjustmentPurple = 0,
			SaturationAdjustmentRed = 0,
			SaturationAdjustmentYellow = 0,
			ToneCurve = {
				0,
				0,
				255,
				255,
			},
			ToneCurveName = "Linear",
			Vibrance = 0,
			VignetteAmount = -73,
			VignetteMidpoint = 14,
			WhiteBalance = "Custom",
		},
		uuid = "DEC249B5-1DB3-42D2-90E3-CBD1568310EF",
	},
	version = 0,
}
