Lightroom-Presets-master/Ruben Silva/Selenium 1.lrtemplate
s = {
	internalName = "Selenium_1",
	title = "Selenium_1",
	type = "Develop",
	value = {
		settings = {
			AutoBrightness = false,
			AutoContrast = false,
			AutoExposure = false,
			AutoShadows = false,
			BlueHue = 0,
			BlueSaturation = 0,
			Brightness = 125,
			CameraProfile = "ACR 2.4",
			ChromaticAberrationB = 38,
			ChromaticAberrationR = 0,
			Clarity = 2,
			Contrast = -23,
			ConvertToGrayscale = true,
			Defringe = 0,
			EnableCalibration = true,
			EnableColorAdjustments = true,
			EnableDetail = true,
			EnableGrayscaleMix = true,
			EnableLensCorrections = true,
			EnableSplitToning = true,
			Exposure = -0.3,
			FillLight = 0,
			GrayMixerAqua = -19,
			GrayMixerBlue = 9,
			GrayMixerGreen = -27,
			GrayMixerMagenta = 4,
			GrayMixerOrange = -19,
			GrayMixerPurple = 15,
			GrayMixerRed = -9,
			GrayMixerYellow = -23,
			GreenHue = 0,
			GreenSaturation = 0,
			HighlightRecovery = 4,
			LuminanceSmoothing = 0,
			ParametricDarks = 0,
			ParametricHighlightSplit = 75,
			ParametricHighlights = 0,
			ParametricLights = 0,
			ParametricMidtoneSplit = 50,
			ParametricShadowSplit = 25,
			ParametricShadows = 0,
			RedHue = 0,
			RedSaturation = 0,
			ShadowTint = 0,
			Shadows = 5,
			SharpenDetail = 7,
			SharpenEdgeMasking = 0,
			SharpenRadius = 1,
			Sharpness = 38,
			SplitToningBalance = 50,
			SplitToningHighlightHue = 56,
			SplitToningHighlightSaturation = 50,
			SplitToningShadowHue = 260,
			SplitToningShadowSaturation = 25,
			ToneCurve = {
				0,
				0,
				166,
				100,
				255,
				255,
			},
			ToneCurveName = "Custom",
			VignetteAmount = 0,
			VignetteMidpoint = 50,
			WhiteBalance = "Auto",
		},
		uuid = "C9B2C6AA-9EFF-425D-93BE-F3BA2EA88F7C",
	},
	version = 0,
}
