Lightroom-Presets-master/Azh_cn-portrait/肖像适用预设-月下独酌.lrtemplate
s = {
	id = "E11EBC34-9188-4165-A012-80052D8FA90C",
	internalName = "月光下的人像风格+暗角",
	title = "肖像适用预设-月下独酌",
	type = "Develop",
	value = {
		settings = {
			AutoBrightness = false,
			AutoContrast = false,
			AutoExposure = false,
			AutoShadows = false,
			BlueHue = 0,
			BlueSaturation = 0,
			Brightness = 65,
			CameraProfile = "ACR 4.4",
			CameraProfileDigest = "6E76DF92632E4D15163E583156357B95",
			ChromaticAberrationB = 0,
			ChromaticAberrationR = 0,
			Clarity = 25,
			ColorNoiseReduction = 25,
			Contrast = 55,
			ConvertToGrayscale = false,
			CropAngle = 0,
			CropBottom = 1,
			CropLeft = 0,
			CropRight = 1,
			CropTop = 0,
			Defringe = 0,
			EnableCalibration = true,
			EnableColorAdjustments = true,
			EnableDetail = true,
			EnableGrayscaleMix = true,
			EnableLensCorrections = true,
			EnableSplitToning = true,
			Exposure = 1.25,
			FillLight = 15,
			GreenHue = 0,
			GreenSaturation = 0,
			HighlightRecovery = 10,
			HueAdjustmentAqua = 0,
			HueAdjustmentBlue = 0,
			HueAdjustmentGreen = 0,
			HueAdjustmentMagenta = 0,
			HueAdjustmentOrange = 0,
			HueAdjustmentPurple = 0,
			HueAdjustmentRed = 0,
			HueAdjustmentYellow = 0,
			LuminanceAdjustmentAqua = 0,
			LuminanceAdjustmentBlue = 0,
			LuminanceAdjustmentGreen = 0,
			LuminanceAdjustmentMagenta = 0,
			LuminanceAdjustmentOrange = 0,
			LuminanceAdjustmentPurple = 0,
			LuminanceAdjustmentRed = 0,
			LuminanceAdjustmentYellow = 0,
			LuminanceSmoothing = 0,
			ParametricDarks = 0,
			ParametricHighlightSplit = 75,
			ParametricHighlights = -21,
			ParametricLights = 0,
			ParametricMidtoneSplit = 50,
			ParametricShadowSplit = 25,
			ParametricShadows = 0,
			RedEyeInfo = {
			},
			RedHue = 0,
			RedSaturation = 0,
			RetouchInfo = {
			},
			Saturation = -25,
			SaturationAdjustmentAqua = 0,
			SaturationAdjustmentBlue = 0,
			SaturationAdjustmentGreen = 0,
			SaturationAdjustmentMagenta = 0,
			SaturationAdjustmentOrange = 0,
			SaturationAdjustmentPurple = 0,
			SaturationAdjustmentRed = 0,
			SaturationAdjustmentYellow = 0,
			ShadowTint = 0,
			Shadows = 10,
			SharpenDetail = 25,
			SharpenEdgeMasking = 0,
			SharpenRadius = 1,
			Sharpness = 25,
			SplitToningBalance = 10,
			SplitToningHighlightHue = 65,
			SplitToningHighlightSaturation = 30,
			SplitToningShadowHue = 250,
			SplitToningShadowSaturation = 50,
			ToneCurve = {
				0,
				0,
				32,
				22,
				64,
				56,
				128,
				128,
				192,
				196,
				255,
				255,
			},
			ToneCurveName = "Medium Contrast",
			Vibrance = 20,
			VignetteAmount = -75,
			VignetteMidpoint = 25,
			WhiteBalance = "As Shot",
		},
		uuid = "775FF350-BB97-4B5C-BDA4-32E9A4F42739",
	},
	version = 0,
}
