Lightroom-Presets-master/薇薇安的时尚人像/Vivian chung's smily spring color pick up.lrtemplate
s = {
	id = "E653609D-E3C3-465C-BF31-D2789C9277C6",
	internalName = "Vivian chung's smily spring color pick up",
	title = "Vivian chung's smily spring color pick up",
	type = "Develop",
	value = {
		settings = {
			AutoBrightness = false,
			AutoContrast = false,
			AutoExposure = false,
			AutoShadows = false,
			BlueHue = 0,
			BlueSaturation = 21,
			Brightness = 61,
			CameraProfile = "ACR 4.2",
			ChromaticAberrationB = 0,
			ChromaticAberrationR = 0,
			Clarity = 41,
			ColorNoiseReduction = 25,
			Contrast = -5,
			ConvertToGrayscale = false,
			Defringe = 0,
			EnableCalibration = true,
			EnableColorAdjustments = true,
			EnableDetail = true,
			EnableGradientBasedCorrections = true,
			EnableGrayscaleMix = true,
			EnableSplitToning = true,
			EnableVignettes = true,
			Exposure = 0,
			FillLight = 25,
			GreenHue = 0,
			GreenSaturation = 29,
			HighlightRecovery = 40,
			HueAdjustmentAqua = 0,
			HueAdjustmentBlue = 0,
			HueAdjustmentGreen = 24,
			HueAdjustmentMagenta = 0,
			HueAdjustmentOrange = 0,
			HueAdjustmentPurple = 0,
			HueAdjustmentRed = 0,
			HueAdjustmentYellow = 0,
			LuminanceAdjustmentAqua = 0,
			LuminanceAdjustmentBlue = 0,
			LuminanceAdjustmentGreen = 0,
			LuminanceAdjustmentMagenta = 0,
			LuminanceAdjustmentOrange = 7,
			LuminanceAdjustmentPurple = 0,
			LuminanceAdjustmentRed = 0,
			LuminanceAdjustmentYellow = 0,
			LuminanceSmoothing = 25,
			ParametricDarks = 18,
			ParametricHighlightSplit = 75,
			ParametricHighlights = 0,
			ParametricLights = 44,
			ParametricMidtoneSplit = 50,
			ParametricShadowSplit = 25,
			ParametricShadows = -12,
			PostCropVignetteAmount = 0,
			PostCropVignetteFeather = 50,
			PostCropVignetteMidpoint = 50,
			PostCropVignetteRoundness = 0,
			RedHue = -12,
			RedSaturation = 0,
			Saturation = 0,
			SaturationAdjustmentAqua = 12,
			SaturationAdjustmentBlue = 15,
			SaturationAdjustmentGreen = 17,
			SaturationAdjustmentMagenta = 8,
			SaturationAdjustmentOrange = 10,
			SaturationAdjustmentPurple = 16,
			SaturationAdjustmentRed = 5,
			SaturationAdjustmentYellow = 23,
			ShadowTint = 0,
			Shadows = 14,
			SharpenDetail = 10,
			SharpenEdgeMasking = 58,
			SharpenRadius = 0.8,
			Sharpness = 16,
			SplitToningBalance = 0,
			SplitToningHighlightHue = 0,
			SplitToningHighlightSaturation = 0,
			SplitToningShadowHue = 0,
			SplitToningShadowSaturation = 0,
			ToneCurve = {
				0,
				0,
				255,
				255,
			},
			ToneCurveName = "Linear",
			Vibrance = 26,
			VignetteAmount = 0,
			VignetteMidpoint = 0,
			WhiteBalance = "As Shot",
		},
		uuid = "3098DE1D-C019-4886-9CF5-5DBF056704C7",
	},
	version = 0,
}
