Lightroom-Presets-master/薇薇安的时尚人像/Vivian Chung's muted skin tone only for light.lrtemplate
s = {
	id = "66B2A1D9-BCF7-419A-9415-705E918FD32B",
	internalName = "Vivian Chung's muted skin tone only for light",
	title = "Vivian Chung's muted skin tone only for light",
	type = "Develop",
	value = {
		settings = {
			BlueHue = 0,
			BlueSaturation = 52,
			CameraProfile = "ACR 2.4",
			ChromaticAberrationB = 0,
			ChromaticAberrationR = 0,
			Clarity = 30,
			ColorNoiseReduction = 60,
			ConvertToGrayscale = false,
			Defringe = 0,
			EnableCalibration = true,
			EnableColorAdjustments = true,
			EnableDetail = true,
			EnableGradientBasedCorrections = true,
			EnableGrayscaleMix = true,
			EnableSplitToning = true,
			EnableVignettes = true,
			GreenHue = 0,
			GreenSaturation = 38,
			HueAdjustmentAqua = 0,
			HueAdjustmentBlue = 0,
			HueAdjustmentGreen = 0,
			HueAdjustmentMagenta = 0,
			HueAdjustmentOrange = -12,
			HueAdjustmentPurple = 0,
			HueAdjustmentRed = 0,
			HueAdjustmentYellow = 0,
			LuminanceAdjustmentAqua = 0,
			LuminanceAdjustmentBlue = 0,
			LuminanceAdjustmentGreen = 0,
			LuminanceAdjustmentMagenta = 0,
			LuminanceAdjustmentOrange = 36,
			LuminanceAdjustmentPurple = 0,
			LuminanceAdjustmentRed = 26,
			LuminanceAdjustmentYellow = 0,
			LuminanceSmoothing = 66,
			ParametricDarks = 0,
			ParametricHighlightSplit = 75,
			ParametricHighlights = 0,
			ParametricLights = 0,
			ParametricMidtoneSplit = 50,
			ParametricShadowSplit = 25,
			ParametricShadows = 0,
			PostCropVignetteAmount = 0,
			PostCropVignetteFeather = 50,
			PostCropVignetteMidpoint = 50,
			PostCropVignetteRoundness = 0,
			RedHue = 0,
			RedSaturation = -31,
			Saturation = 0,
			SaturationAdjustmentAqua = -100,
			SaturationAdjustmentBlue = -100,
			SaturationAdjustmentGreen = -100,
			SaturationAdjustmentMagenta = -100,
			SaturationAdjustmentOrange = -36,
			SaturationAdjustmentPurple = -100,
			SaturationAdjustmentRed = -24,
			SaturationAdjustmentYellow = -100,
			ShadowTint = 0,
			SharpenDetail = 25,
			SharpenEdgeMasking = 65,
			SharpenRadius = 0.9,
			Sharpness = 18,
			SplitToningBalance = 0,
			SplitToningHighlightHue = 0,
			SplitToningHighlightSaturation = 0,
			SplitToningShadowHue = 0,
			SplitToningShadowSaturation = 0,
			ToneCurve = {
				0,
				0,
				32,
				22,
				64,
				56,
				128,
				128,
				192,
				196,
				255,
				255,
			},
			ToneCurveName = "Medium Contrast",
			Vibrance = 31,
			VignetteAmount = 0,
			VignetteMidpoint = 50,
			WhiteBalance = "As Shot",
		},
		uuid = "509B4892-9E9C-45A0-9861-A60AD0FCE3B2",
	},
	version = 0,
}
