Lightroom-Presets-master/薇薇安的时尚人像/Vivian Chung's RS retro normal.lrtemplate
s = {
	id = "D82D0B4C-9F37-4F8B-A07D-21EC2DC56F09",
	internalName = "Vivian Chung's RS retro normal",
	title = "Vivian Chung's RS retro normal",
	type = "Develop",
	value = {
		settings = {
			AutoBrightness = false,
			AutoContrast = false,
			AutoExposure = false,
			AutoShadows = false,
			BlueHue = 0,
			BlueSaturation = 0,
			Brightness = 50,
			CameraProfile = "ACR 3.3",
			ChromaticAberrationB = 0,
			ChromaticAberrationR = 0,
			Clarity = 30,
			ColorNoiseReduction = 21,
			Contrast = 25,
			ConvertToGrayscale = false,
			Defringe = 0,
			EnableCalibration = true,
			EnableColorAdjustments = true,
			EnableDetail = true,
			EnableGradientBasedCorrections = true,
			EnableGrayscaleMix = true,
			EnableSplitToning = true,
			EnableVignettes = true,
			Exposure = -0.48,
			FillLight = 21,
			GreenHue = 0,
			GreenSaturation = 0,
			HighlightRecovery = 24,
			HueAdjustmentAqua = 0,
			HueAdjustmentBlue = 0,
			HueAdjustmentGreen = 0,
			HueAdjustmentMagenta = 0,
			HueAdjustmentOrange = -2,
			HueAdjustmentPurple = 0,
			HueAdjustmentRed = 0,
			HueAdjustmentYellow = 0,
			LuminanceAdjustmentAqua = 0,
			LuminanceAdjustmentBlue = 0,
			LuminanceAdjustmentGreen = 0,
			LuminanceAdjustmentMagenta = 0,
			LuminanceAdjustmentOrange = 43,
			LuminanceAdjustmentPurple = 0,
			LuminanceAdjustmentRed = 100,
			LuminanceAdjustmentYellow = 38,
			LuminanceSmoothing = 18,
			ParametricDarks = -35,
			ParametricHighlightSplit = 75,
			ParametricHighlights = 0,
			ParametricLights = 36,
			ParametricMidtoneSplit = 50,
			ParametricShadowSplit = 14,
			ParametricShadows = 8,
			PostCropVignetteAmount = 0,
			PostCropVignetteFeather = 50,
			PostCropVignetteMidpoint = 50,
			PostCropVignetteRoundness = 0,
			RedHue = 0,
			RedSaturation = 0,
			Saturation = -93,
			SaturationAdjustmentAqua = -100,
			SaturationAdjustmentBlue = -100,
			SaturationAdjustmentGreen = -100,
			SaturationAdjustmentMagenta = -100,
			SaturationAdjustmentOrange = 14,
			SaturationAdjustmentPurple = -100,
			SaturationAdjustmentRed = 10,
			SaturationAdjustmentYellow = -100,
			ShadowTint = 0,
			Shadows = 17,
			SharpenDetail = 25,
			SharpenEdgeMasking = 0,
			SharpenRadius = 1,
			Sharpness = 25,
			SplitToningBalance = 53,
			SplitToningHighlightHue = 55,
			SplitToningHighlightSaturation = 31,
			SplitToningShadowHue = 55,
			SplitToningShadowSaturation = 0,
			Temperature = 5095,
			Tint = 19,
			ToneCurve = {
				0,
				0,
				32,
				22,
				64,
				56,
				128,
				128,
				192,
				196,
				255,
				255,
			},
			ToneCurveName = "Medium Contrast",
			Vibrance = 100,
			VignetteAmount = -100,
			VignetteMidpoint = 20,
			WhiteBalance = "Custom",
		},
		uuid = "865AD675-C6EE-42C1-9F27-E98EA72570E8",
	},
	version = 0,
}
