Lightroom-Presets-master/NV BW and Vintage RAW Presets Lightroom/NV BW Acid.lrtemplate
s = {
	internalName = "BW: Dramatic",
	title = "NV BW Acid",
	type = "Develop",
	value = {
		settings = {
			AutoBrightness = false,
			AutoContrast = false,
			AutoExposure = false,
			AutoShadows = false,
			BlueHue = 0,
			BlueSaturation = 0,
			Brightness = 65,
			CameraProfile = "ACR 3.3",
			ChromaticAberrationB = 0,
			ChromaticAberrationR = 0,
			Clarity = 0,
			Contrast = 51,
			ConvertToGrayscale = true,
			Defringe = 0,
			EnableCalibration = true,
			EnableColorAdjustments = true,
			EnableDetail = true,
			EnableGrayscaleMix = true,
			EnableLensCorrections = true,
			EnableSplitToning = true,
			Exposure = 0,
			FillLight = 34,
			GrayMixerAqua = -17,
			GrayMixerBlue = 15,
			GrayMixerGreen = -28,
			GrayMixerMagenta = 4,
			GrayMixerOrange = -21,
			GrayMixerPurple = 19,
			GrayMixerRed = -11,
			GrayMixerYellow = -25,
			GreenHue = 0,
			GreenSaturation = 0,
			HighlightRecovery = 18,
			LuminanceSmoothing = 0,
			ParametricDarks = -36,
			ParametricHighlightSplit = 75,
			ParametricHighlights = -41,
			ParametricLights = 55,
			ParametricMidtoneSplit = 50,
			ParametricShadowSplit = 25,
			ParametricShadows = -41,
			RedHue = 0,
			RedSaturation = 0,
			ShadowTint = 0,
			Shadows = 20,
			SharpenDetail = 25,
			SharpenEdgeMasking = 0,
			SharpenRadius = 1,
			Sharpness = 25,
			SplitToningBalance = 0,
			SplitToningHighlightHue = 47,
			SplitToningHighlightSaturation = 26,
			SplitToningShadowHue = 64,
			SplitToningShadowSaturation = 19,
			ToneCurve = {
				0,
				0,
				32,
				16,
				64,
				50,
				128,
				128,
				192,
				202,
				255,
				255,
			},
			ToneCurveName = "Medium Contrast",
			VignetteAmount = -91,
			VignetteMidpoint = 50,
		},
		uuid = "DD87174B-10CF-4382-81A8-1EA918410336",
	},
	version = 0,
}
