lightroom-plugins-master/B&W Red Filter.lrtemplate
s = {
	id = "43074054-B54C-40D7-A85D-D071986164E3",
	internalName = "B&W Red Filter",
	title = "B&W Red Filter",
	type = "Develop",
	value = {
		settings = {
			AutoBrightness = false,
			AutoContrast = false,
			AutoExposure = false,
			AutoShadows = false,
			BlueHue = 0,
			BlueSaturation = 0,
			Brightness = 69,
			CameraProfile = "ACR 3.3",
			ChromaticAberrationB = 0,
			ChromaticAberrationR = 0,
			Contrast = 26,
			ConvertToGrayscale = true,
			EnableCalibration = true,
			EnableColorAdjustments = true,
			EnableDetail = true,
			EnableGrayscaleMix = true,
			EnableLensCorrections = true,
			EnableSplitToning = true,
			Exposure = 0.15,
			FillLight = 0,
			GrayMixerAqua = -45,
			GrayMixerBlue = 22,
			GrayMixerGreen = -41,
			GrayMixerMagenta = 33,
			GrayMixerOrange = 13,
			GrayMixerPurple = 24,
			GrayMixerRed = 48,
			GrayMixerYellow = -15,
			GreenHue = 0,
			GreenSaturation = 0,
			HighlightRecovery = 0,
			LuminanceSmoothing = 0,
			ParametricDarks = 0,
			ParametricHighlightSplit = 75,
			ParametricHighlights = 0,
			ParametricLights = 0,
			ParametricMidtoneSplit = 50,
			ParametricShadowSplit = 25,
			ParametricShadows = 0,
			RedHue = 0,
			RedSaturation = 0,
			ShadowTint = 0,
			Shadows = 5,
			Sharpness = 25,
			SplitToningBalance = 0,
			SplitToningHighlightHue = 50,
			SplitToningHighlightSaturation = 0,
			SplitToningShadowHue = 50,
			SplitToningShadowSaturation = 0,
			ToneCurve = {
				0,
				0,
				36,
				23,
				179,
				189,
				255,
				255,
			},
			VignetteAmount = 0,
			VignetteMidpoint = 50,
			WhiteBalance = "As Shot",
		},
		uuid = "2C887173-B816-4ABE-854E-393C4BF0C537",
	},
	version = 0,
}
