lightroom-plugins-master/COL Deviant2.lrtemplate
s = {
	id = "99518B8A-77A1-41D7-B3DB-A6A73501F979",
	internalName = "COL Deviant2",
	title = "COL Deviant2",
	type = "Develop",
	value = {
		settings = {
			AutoBrightness = false,
			AutoContrast = false,
			AutoExposure = false,
			AutoShadows = false,
			BlueHue = -22,
			BlueSaturation = 22,
			Brightness = 49,
			CameraProfile = "ACR 2.4",
			ChromaticAberrationB = 0,
			ChromaticAberrationR = 2,
			ColorNoiseReduction = 0,
			Contrast = 100,
			ConvertToGrayscale = false,
			EnableCalibration = true,
			EnableColorAdjustments = true,
			EnableDetail = true,
			EnableGrayscaleMix = true,
			EnableLensCorrections = true,
			EnableSplitToning = true,
			Exposure = 0.09,
			FillLight = 84,
			GreenHue = -54,
			GreenSaturation = 48,
			HighlightRecovery = 72,
			HueAdjustmentAqua = 0,
			HueAdjustmentBlue = 0,
			HueAdjustmentGreen = 0,
			HueAdjustmentMagenta = 0,
			HueAdjustmentOrange = 0,
			HueAdjustmentPurple = 0,
			HueAdjustmentRed = 0,
			HueAdjustmentYellow = 0,
			LuminanceAdjustmentAqua = 0,
			LuminanceAdjustmentBlue = 0,
			LuminanceAdjustmentGreen = 0,
			LuminanceAdjustmentMagenta = 0,
			LuminanceAdjustmentOrange = 0,
			LuminanceAdjustmentPurple = 0,
			LuminanceAdjustmentRed = 0,
			LuminanceAdjustmentYellow = 0,
			LuminanceSmoothing = 0,
			ParametricDarks = -4,
			ParametricHighlightSplit = 75,
			ParametricHighlights = 21,
			ParametricLights = 58,
			ParametricMidtoneSplit = 50,
			ParametricShadowSplit = 25,
			ParametricShadows = -58,
			RedHue = -100,
			RedSaturation = 63,
			Saturation = -86,
			SaturationAdjustmentAqua = 0,
			SaturationAdjustmentBlue = 0,
			SaturationAdjustmentGreen = 0,
			SaturationAdjustmentMagenta = 0,
			SaturationAdjustmentOrange = 0,
			SaturationAdjustmentPurple = 0,
			SaturationAdjustmentRed = 0,
			SaturationAdjustmentYellow = 0,
			ShadowTint = 0,
			Shadows = 21,
			Sharpness = 48,
			SplitToningBalance = 0,
			SplitToningHighlightHue = 50,
			SplitToningHighlightSaturation = 11,
			SplitToningShadowHue = 50,
			SplitToningShadowSaturation = 34,
			ToneCurve = {
				0,
				0,
				255,
				255,
			},
			Vibrance = -21,
			VignetteAmount = 0,
			VignetteMidpoint = 0,
			WhiteBalance = "As Shot",
		},
		uuid = "FB73D9EF-944C-486D-8862-BBB862062391",
	},
	version = 0,
}
