lightroom-plugins-master/Cool Sepia.lrtemplate
s = {
	internalName = "Cool Sepia",
	title = "Cool Sepia",
	type = "Develop",
	value = {
		settings = {
			AutoBrightness = false,
			AutoContrast = false,
			AutoExposure = false,
			AutoShadows = false,
			Brightness = 57,
			ChromaticAberrationB = 0,
			ChromaticAberrationR = 0,
			Clarity = 12,
			Contrast = 54,
			ConvertToGrayscale = true,
			Defringe = 0,
			EnableColorAdjustments = true,
			EnableDetail = true,
			EnableGrayscaleMix = true,
			EnableLensCorrections = true,
			EnableSplitToning = true,
			Exposure = 0.57,
			FillLight = 10,
			GrayMixerAqua = -17,
			GrayMixerBlue = 12,
			GrayMixerGreen = -27,
			GrayMixerMagenta = 5,
			GrayMixerOrange = -18,
			GrayMixerPurple = 17,
			GrayMixerRed = -9,
			GrayMixerYellow = -22,
			HighlightRecovery = 21,
			LuminanceSmoothing = 0,
			ParametricDarks = 0,
			ParametricHighlightSplit = 75,
			ParametricHighlights = 0,
			ParametricLights = 0,
			ParametricMidtoneSplit = 50,
			ParametricShadowSplit = 25,
			ParametricShadows = 0,
			Shadows = 7,
			SharpenDetail = 25,
			SharpenEdgeMasking = 0,
			SharpenRadius = 1,
			Sharpness = 25,
			SplitToningBalance = 0,
			SplitToningHighlightHue = 56,
			SplitToningHighlightSaturation = 25,
			SplitToningShadowHue = 206,
			SplitToningShadowSaturation = 15,
			Temperature = 5333,
			Tint = -5,
			ToneCurve = {
				0,
				0,
				32,
				16,
				64,
				50,
				128,
				128,
				192,
				202,
				255,
				255,
			},
			ToneCurveName = "Medium Contrast",
			VignetteAmount = 0,
			VignetteMidpoint = 50,
			WhiteBalance = "Custom",
		},
		uuid = "A840B30C-E5E2-49ED-8684-7B10DFE8B3B4",
	},
	version = 0,
}
