lightroom-plugins-master/Crissy.lrtemplate
s = {
	id = "F1AFB2DD-4695-4FA7-B877-27E92474E095",
	internalName = "Crissy",
	title = "Crissy",
	type = "Develop",
	value = {
		settings = {
			AutoBrightness = false,
			AutoContrast = false,
			AutoExposure = false,
			AutoShadows = false,
			BlueHue = -48,
			BlueSaturation = -6,
			Brightness = 75,
			CameraProfile = "Embedded",
			ChromaticAberrationB = 0,
			ChromaticAberrationR = 0,
			Clarity = 29,
			ColorNoiseReduction = 0,
			Contrast = -45,
			ConvertToGrayscale = false,
			Defringe = 0,
			EnableCalibration = true,
			EnableColorAdjustments = true,
			EnableDetail = true,
			EnableGrayscaleMix = true,
			EnableLensCorrections = true,
			EnableSplitToning = true,
			Exposure = 1.08,
			FillLight = 0,
			GreenHue = 100,
			GreenSaturation = 100,
			HighlightRecovery = 64,
			HueAdjustmentAqua = 0,
			HueAdjustmentBlue = 0,
			HueAdjustmentGreen = 0,
			HueAdjustmentMagenta = 0,
			HueAdjustmentOrange = 0,
			HueAdjustmentPurple = 0,
			HueAdjustmentRed = 0,
			HueAdjustmentYellow = 0,
			IncrementalTemperature = 2,
			IncrementalTint = 15,
			LuminanceAdjustmentAqua = 0,
			LuminanceAdjustmentBlue = 0,
			LuminanceAdjustmentGreen = 0,
			LuminanceAdjustmentMagenta = 0,
			LuminanceAdjustmentOrange = 0,
			LuminanceAdjustmentPurple = 0,
			LuminanceAdjustmentRed = 0,
			LuminanceAdjustmentYellow = 0,
			LuminanceSmoothing = 0,
			ParametricDarks = -46,
			ParametricHighlightSplit = 75,
			ParametricHighlights = -65,
			ParametricLights = -17,
			ParametricMidtoneSplit = 50,
			ParametricShadowSplit = 25,
			ParametricShadows = -21,
			RedHue = 0,
			RedSaturation = 0,
			Saturation = -35,
			SaturationAdjustmentAqua = 0,
			SaturationAdjustmentBlue = 0,
			SaturationAdjustmentGreen = 0,
			SaturationAdjustmentMagenta = 0,
			SaturationAdjustmentOrange = 0,
			SaturationAdjustmentPurple = 0,
			SaturationAdjustmentRed = 0,
			SaturationAdjustmentYellow = 0,
			ShadowTint = 0,
			Shadows = 17,
			SharpenDetail = 25,
			SharpenEdgeMasking = 0,
			SharpenRadius = 1,
			Sharpness = 0,
			SplitToningBalance = -19,
			SplitToningHighlightHue = 79,
			SplitToningHighlightSaturation = 88,
			SplitToningShadowHue = 322,
			SplitToningShadowSaturation = 24,
			ToneCurve = {
				0,
				0,
				255,
				255,
			},
			ToneCurveName = "Linear",
			Vibrance = -29,
			VignetteAmount = -100,
			VignetteMidpoint = 11,
			WhiteBalance = "Custom",
		},
		uuid = "BCE22F2B-3DFE-434F-9247-A32B2BCC8D71",
	},
	version = 0,
}
