lightroom-plugins-master/Dark Horse 1.lrtemplate
s = {
	id = "60F9CA30-D7E1-481F-A087-1D263A38FB36",
	internalName = "Dark Horse 1",
	title = "Dark Horse 1",
	type = "Develop",
	value = {
		settings = {
			AutoBrightness = false,
			AutoContrast = false,
			AutoExposure = false,
			AutoShadows = false,
			BlueHue = 0,
			BlueSaturation = 0,
			Brightness = 30,
			CameraProfile = "ACR 3.3",
			ChromaticAberrationB = 0,
			ChromaticAberrationR = 0,
			Clarity = 51,
			ColorNoiseReduction = 0,
			Contrast = 35,
			ConvertToGrayscale = false,
			Defringe = 0,
			EnableCalibration = true,
			EnableColorAdjustments = true,
			EnableDetail = true,
			EnableGrayscaleMix = true,
			EnableLensCorrections = true,
			EnableSplitToning = false,
			Exposure = -0.33,
			FillLight = 48,
			GreenHue = 0,
			GreenSaturation = 0,
			HighlightRecovery = 25,
			HueAdjustmentAqua = -48,
			HueAdjustmentBlue = 0,
			HueAdjustmentGreen = 34,
			HueAdjustmentMagenta = 29,
			HueAdjustmentOrange = 36,
			HueAdjustmentPurple = 0,
			HueAdjustmentRed = 27,
			HueAdjustmentYellow = -46,
			LuminanceAdjustmentAqua = 0,
			LuminanceAdjustmentBlue = 0,
			LuminanceAdjustmentGreen = 72,
			LuminanceAdjustmentMagenta = 0,
			LuminanceAdjustmentOrange = 0,
			LuminanceAdjustmentPurple = 0,
			LuminanceAdjustmentRed = 0,
			LuminanceAdjustmentYellow = 0,
			LuminanceSmoothing = 36,
			ParametricDarks = 53,
			ParametricHighlightSplit = 75,
			ParametricHighlights = 58,
			ParametricLights = 11,
			ParametricMidtoneSplit = 50,
			ParametricShadowSplit = 25,
			ParametricShadows = -8,
			RedHue = 0,
			RedSaturation = 0,
			Saturation = -29,
			SaturationAdjustmentAqua = 0,
			SaturationAdjustmentBlue = 0,
			SaturationAdjustmentGreen = 79,
			SaturationAdjustmentMagenta = 0,
			SaturationAdjustmentOrange = 0,
			SaturationAdjustmentPurple = 0,
			SaturationAdjustmentRed = 0,
			SaturationAdjustmentYellow = 0,
			ShadowTint = 0,
			Shadows = 98,
			SharpenDetail = 25,
			SharpenEdgeMasking = 0,
			SharpenRadius = 1,
			Sharpness = 16,
			SplitToningBalance = 6,
			SplitToningHighlightHue = 0,
			SplitToningHighlightSaturation = 0,
			SplitToningShadowHue = 0,
			SplitToningShadowSaturation = 0,
			Temperature = 8239,
			Tint = -19,
			ToneCurve = {
				0,
				0,
				255,
				255,
			},
			ToneCurveName = "Linear",
			Vibrance = -22,
			VignetteAmount = -100,
			VignetteMidpoint = 13,
			WhiteBalance = "Custom",
		},
		uuid = "2017F4FA-A0B1-435C-8138-4B851B716971",
	},
	version = 0,
}
