lightroom-plugins-master/Muskrat Love.lrtemplate
s = {
	id = "691F214B-78D5-4546-B44F-4AF8364B9117",
	internalName = "Muskrat Love",
	title = "Muskrat Love",
	type = "Develop",
	value = {
		settings = {
			AutoBrightness = false,
			AutoContrast = false,
			AutoExposure = false,
			AutoShadows = false,
			BlueHue = 0,
			BlueSaturation = 0,
			Brightness = 38,
			CameraProfile = "Embedded",
			ChromaticAberrationB = 0,
			ChromaticAberrationR = 0,
			Clarity = 29,
			ColorNoiseReduction = 0,
			Contrast = 8,
			ConvertToGrayscale = false,
			Defringe = 0,
			EnableCalibration = true,
			EnableColorAdjustments = true,
			EnableDetail = true,
			EnableGrayscaleMix = true,
			EnableLensCorrections = true,
			EnableSplitToning = true,
			Exposure = 1.08,
			FillLight = 13,
			GreenHue = 0,
			GreenSaturation = 0,
			HighlightRecovery = 51,
			HueAdjustmentAqua = 0,
			HueAdjustmentBlue = -38,
			HueAdjustmentGreen = 0,
			HueAdjustmentMagenta = 0,
			HueAdjustmentOrange = 0,
			HueAdjustmentPurple = 0,
			HueAdjustmentRed = 0,
			HueAdjustmentYellow = 0,
			IncrementalTemperature = 8,
			IncrementalTint = -11,
			LuminanceAdjustmentAqua = 0,
			LuminanceAdjustmentBlue = 0,
			LuminanceAdjustmentGreen = 0,
			LuminanceAdjustmentMagenta = 0,
			LuminanceAdjustmentOrange = 0,
			LuminanceAdjustmentPurple = 0,
			LuminanceAdjustmentRed = 0,
			LuminanceAdjustmentYellow = 0,
			LuminanceSmoothing = 0,
			ParametricDarks = 0,
			ParametricHighlightSplit = 75,
			ParametricHighlights = -60,
			ParametricLights = 0,
			ParametricMidtoneSplit = 50,
			ParametricShadowSplit = 25,
			ParametricShadows = 0,
			RedHue = 0,
			RedSaturation = 0,
			Saturation = -15,
			SaturationAdjustmentAqua = 0,
			SaturationAdjustmentBlue = 17,
			SaturationAdjustmentGreen = 0,
			SaturationAdjustmentMagenta = 19,
			SaturationAdjustmentOrange = 0,
			SaturationAdjustmentPurple = 0,
			SaturationAdjustmentRed = -31,
			SaturationAdjustmentYellow = 0,
			ShadowTint = 0,
			Shadows = 17,
			SharpenDetail = 25,
			SharpenEdgeMasking = 0,
			SharpenRadius = 1,
			Sharpness = 0,
			SplitToningBalance = -19,
			SplitToningHighlightHue = 79,
			SplitToningHighlightSaturation = 65,
			SplitToningShadowHue = 308,
			SplitToningShadowSaturation = 25,
			ToneCurve = {
				0,
				0,
				255,
				255,
			},
			ToneCurveName = "Linear",
			Vibrance = -19,
			VignetteAmount = -100,
			VignetteMidpoint = 11,
			WhiteBalance = "Custom",
		},
		uuid = "66181B74-2A95-4B44-8A3D-D33ACDDCA841",
	},
	version = 0,
}
