lightroom-plugins-master/PH Infrared II.lrtemplate
s = {
	id = "3579A160-A24F-4D35-91F1-66C1C4005F3F",
	internalName = "PH Infrared II",
	title = "PH Infrared II",
	type = "Develop",
	value = {
		settings = {
			AutoBrightness = false,
			AutoContrast = false,
			AutoExposure = false,
			AutoShadows = false,
			BlueHue = 0,
			BlueSaturation = 0,
			Brightness = 25,
			CameraProfile = "ACR 3.6",
			ChromaticAberrationB = 0,
			ChromaticAberrationR = 0,
			Clarity = 50,
			Contrast = 21,
			ConvertToGrayscale = true,
			Defringe = 0,
			EnableCalibration = true,
			EnableColorAdjustments = true,
			EnableDetail = true,
			EnableGradientBasedCorrections = true,
			EnableGrayscaleMix = true,
			EnableSplitToning = true,
			EnableVignettes = true,
			Exposure = 0.26,
			FillLight = 35,
			GrayMixerAqua = 51,
			GrayMixerBlue = 0,
			GrayMixerGreen = 100,
			GrayMixerMagenta = -81,
			GrayMixerOrange = 0,
			GrayMixerPurple = -28,
			GrayMixerRed = -45,
			GrayMixerYellow = 51,
			GreenHue = 0,
			GreenSaturation = 0,
			HighlightRecovery = 46,
			IncrementalTemperature = -40,
			IncrementalTint = -98,
			LuminanceSmoothing = 0,
			ParametricDarks = 0,
			ParametricHighlightSplit = 75,
			ParametricHighlights = 0,
			ParametricLights = 0,
			ParametricMidtoneSplit = 50,
			ParametricShadowSplit = 25,
			ParametricShadows = -26,
			PostCropVignetteAmount = 0,
			PostCropVignetteFeather = 50,
			PostCropVignetteMidpoint = 50,
			PostCropVignetteRoundness = 0,
			RedHue = 0,
			RedSaturation = 0,
			ShadowTint = 0,
			Shadows = 61,
			SharpenDetail = 25,
			SharpenEdgeMasking = 0,
			SharpenRadius = 1,
			Sharpness = 0,
			SplitToningBalance = 0,
			SplitToningHighlightHue = 0,
			SplitToningHighlightSaturation = 0,
			SplitToningShadowHue = 0,
			SplitToningShadowSaturation = 0,
			ToneCurve = {
				0,
				0,
				32,
				22,
				64,
				56,
				128,
				128,
				192,
				196,
				255,
				255,
			},
			ToneCurveName = "Medium Contrast",
			VignetteAmount = -68,
			VignetteMidpoint = 31,
			WhiteBalance = "Custom",
		},
		uuid = "A98504F6-A13F-4584-9C8D-5EAC3856DC6E",
	},
	version = 0,
}
