lightroom-plugins-master/RJ - Cinema 2.lrtemplate
s = {
	id = "0A489DD5-7E4B-4805-BAF8-2C47C90D4DAF",
	internalName = "RJ - Cinema 2",
	title = "RJ - Cinema 2",
	type = "Develop",
	value = {
		settings = {
			AutoBrightness = false,
			AutoContrast = false,
			AutoExposure = false,
			AutoShadows = false,
			BlueHue = 0,
			BlueSaturation = 0,
			Brightness = 50,
			CameraProfile = "ACR 4.4",
			ChromaticAberrationB = 0,
			ChromaticAberrationR = 0,
			Clarity = 67,
			ColorNoiseReduction = 25,
			Contrast = 80,
			ConvertToGrayscale = false,
			Defringe = 0,
			EnableCalibration = true,
			EnableColorAdjustments = true,
			EnableDetail = true,
			EnableGradientBasedCorrections = true,
			EnableGrayscaleMix = true,
			EnableSplitToning = true,
			EnableVignettes = true,
			Exposure = 0.08,
			FillLight = 85,
			GreenHue = 0,
			GreenSaturation = 0,
			HighlightRecovery = 66,
			HueAdjustmentAqua = 0,
			HueAdjustmentBlue = 0,
			HueAdjustmentGreen = 0,
			HueAdjustmentMagenta = 0,
			HueAdjustmentOrange = 0,
			HueAdjustmentPurple = 0,
			HueAdjustmentRed = 0,
			HueAdjustmentYellow = 0,
			LuminanceAdjustmentAqua = 0,
			LuminanceAdjustmentBlue = 0,
			LuminanceAdjustmentGreen = 0,
			LuminanceAdjustmentMagenta = 0,
			LuminanceAdjustmentOrange = 0,
			LuminanceAdjustmentPurple = 0,
			LuminanceAdjustmentRed = 0,
			LuminanceAdjustmentYellow = 0,
			LuminanceSmoothing = 0,
			ParametricDarks = -6,
			ParametricHighlightSplit = 75,
			ParametricHighlights = -15,
			ParametricLights = -4,
			ParametricMidtoneSplit = 50,
			ParametricShadowSplit = 25,
			ParametricShadows = -35,
			PostCropVignetteAmount = -21,
			PostCropVignetteFeather = 50,
			PostCropVignetteMidpoint = 50,
			PostCropVignetteRoundness = 0,
			RedHue = 0,
			RedSaturation = 0,
			Saturation = -75,
			SaturationAdjustmentAqua = -29,
			SaturationAdjustmentBlue = -31,
			SaturationAdjustmentGreen = -69,
			SaturationAdjustmentMagenta = -60,
			SaturationAdjustmentOrange = -27,
			SaturationAdjustmentPurple = -35,
			SaturationAdjustmentRed = 46,
			SaturationAdjustmentYellow = -48,
			ShadowTint = 0,
			Shadows = 76,
			SharpenDetail = 25,
			SharpenEdgeMasking = 0,
			SharpenRadius = 1,
			Sharpness = 25,
			SplitToningBalance = 0,
			SplitToningHighlightHue = 26,
			SplitToningHighlightSaturation = 16,
			SplitToningShadowHue = 236,
			SplitToningShadowSaturation = 24,
			ToneCurve = {
				0,
				0,
				32,
				22,
				64,
				56,
				128,
				128,
				192,
				196,
				255,
				255,
			},
			ToneCurveName = "Medium Contrast",
			Vibrance = 69,
			VignetteAmount = -48,
			VignetteMidpoint = 50,
			WhiteBalance = "As Shot",
		},
		uuid = "3821CC96-02FC-44DA-B935-2C88F282A372",
	},
	version = 0,
}
