lightroom-plugins-master/Seim Infrared Warm II.lrtemplate
s = {
	id = "376F471D-4AFA-487B-A8ED-52859BAC29D7",
	internalName = "Seim Infrared Warm II",
	title = "Seim Infrared Warm II",
	type = "Develop",
	value = {
		settings = {
			AutoBrightness = false,
			AutoContrast = false,
			AutoExposure = false,
			AutoShadows = false,
			Brightness = 54,
			Clarity = 80,
			Contrast = 68,
			ConvertToGrayscale = true,
			EnableColorAdjustments = true,
			EnableGrayscaleMix = true,
			EnableLensCorrections = true,
			EnableSplitToning = true,
			Exposure = 0.26,
			FillLight = 0,
			GrayMixerAqua = 51,
			GrayMixerBlue = 0,
			GrayMixerGreen = 100,
			GrayMixerMagenta = -72,
			GrayMixerOrange = -15,
			GrayMixerPurple = -28,
			GrayMixerRed = -45,
			GrayMixerYellow = 49,
			HighlightRecovery = 0,
			ParametricDarks = 12,
			ParametricHighlightSplit = 75,
			ParametricHighlights = 0,
			ParametricLights = 0,
			ParametricMidtoneSplit = 50,
			ParametricShadowSplit = 25,
			ParametricShadows = -12,
			Shadows = 47,
			SplitToningBalance = 0,
			SplitToningHighlightHue = 34,
			SplitToningHighlightSaturation = 10,
			SplitToningShadowHue = 34,
			SplitToningShadowSaturation = 27,
			Temperature = 3277,
			Tint = -146,
			ToneCurve = {
				0,
				0,
				32,
				22,
				64,
				56,
				128,
				128,
				192,
				196,
				255,
				255,
			},
			ToneCurveName = "Medium Contrast",
			VignetteAmount = -68,
			VignetteMidpoint = 31,
			WhiteBalance = "Custom",
		},
		uuid = "09302223-F74F-48A2-8699-3E1C40364360",
	},
	version = 0,
}
