lightroom-plugins-master/Up the Sandbox.lrtemplate
s = {
	id = "7AF379E1-3E18-49A5-9316-CB1F5FF5A1E2",
	internalName = "Up the Sandbox",
	title = "Up the Sandbox",
	type = "Develop",
	value = {
		settings = {
			AutoBrightness = false,
			AutoContrast = false,
			AutoExposure = false,
			AutoShadows = false,
			BlueHue = 0,
			BlueSaturation = 0,
			Brightness = 53,
			CameraProfile = "Embedded",
			ChromaticAberrationB = 0,
			ChromaticAberrationR = 0,
			Clarity = 7,
			ColorNoiseReduction = 0,
			Contrast = -19,
			ConvertToGrayscale = false,
			Defringe = 0,
			EnableCalibration = true,
			EnableColorAdjustments = true,
			EnableDetail = true,
			EnableGrayscaleMix = true,
			EnableLensCorrections = true,
			EnableSplitToning = true,
			Exposure = 0.17,
			FillLight = 0,
			GreenHue = 0,
			GreenSaturation = 0,
			HighlightRecovery = 8,
			HueAdjustmentAqua = 0,
			HueAdjustmentBlue = 0,
			HueAdjustmentGreen = 0,
			HueAdjustmentMagenta = 0,
			HueAdjustmentOrange = 29,
			HueAdjustmentPurple = 0,
			HueAdjustmentRed = 0,
			HueAdjustmentYellow = 0,
			IncrementalTemperature = 35,
			IncrementalTint = 52,
			LuminanceAdjustmentAqua = 8,
			LuminanceAdjustmentBlue = -18,
			LuminanceAdjustmentGreen = 0,
			LuminanceAdjustmentMagenta = 0,
			LuminanceAdjustmentOrange = -22,
			LuminanceAdjustmentPurple = 0,
			LuminanceAdjustmentRed = 0,
			LuminanceAdjustmentYellow = 0,
			LuminanceSmoothing = 0,
			ParametricDarks = -21,
			ParametricHighlightSplit = 75,
			ParametricHighlights = 0,
			ParametricLights = -10,
			ParametricMidtoneSplit = 50,
			ParametricShadowSplit = 25,
			ParametricShadows = -4,
			RedHue = 0,
			RedSaturation = 0,
			Saturation = -2,
			SaturationAdjustmentAqua = -20,
			SaturationAdjustmentBlue = 22,
			SaturationAdjustmentGreen = 0,
			SaturationAdjustmentMagenta = 0,
			SaturationAdjustmentOrange = -25,
			SaturationAdjustmentPurple = 0,
			SaturationAdjustmentRed = 0,
			SaturationAdjustmentYellow = -18,
			ShadowTint = 0,
			Shadows = 17,
			SharpenDetail = 0,
			SharpenEdgeMasking = 0,
			SharpenRadius = 0.5,
			Sharpness = 0,
			SplitToningBalance = 19,
			SplitToningHighlightHue = 98,
			SplitToningHighlightSaturation = 35,
			SplitToningShadowHue = 241,
			SplitToningShadowSaturation = 67,
			ToneCurve = {
				0,
				0,
				255,
				255,
			},
			ToneCurveName = "Linear",
			Vibrance = -25,
			VignetteAmount = 25,
			VignetteMidpoint = 48,
			WhiteBalance = "Custom",
		},
		uuid = "F40B59E8-0412-40C1-99DF-5ED796D4AD45",
	},
	version = 0,
}
