Lightroom-Presets-master/NV Color RAW Presets Lightroom/NV Denim.lrtemplate
s = {
	internalName = "Color: Denim",
	title = "NV Denim",
	type = "Develop",
	value = {
		settings = {
			AutoBrightness = false,
			AutoContrast = false,
			AutoExposure = false,
			AutoShadows = false,
			BlueHue = 0,
			BlueSaturation = 0,
			Brightness = 65,
			CameraProfile = "ACR 3.3",
			ChromaticAberrationB = 0,
			ChromaticAberrationR = 0,
			Clarity = 0,
			ColorNoiseReduction = 25,
			Contrast = 36,
			ConvertToGrayscale = false,
			Defringe = 0,
			EnableCalibration = true,
			EnableColorAdjustments = true,
			EnableDetail = true,
			EnableGrayscaleMix = true,
			EnableLensCorrections = true,
			EnableSplitToning = true,
			Exposure = 0,
			FillLight = 14,
			GreenHue = 0,
			GreenSaturation = 0,
			HighlightRecovery = 0,
			HueAdjustmentAqua = 0,
			HueAdjustmentBlue = 0,
			HueAdjustmentGreen = 0,
			HueAdjustmentMagenta = 0,
			HueAdjustmentOrange = 0,
			HueAdjustmentPurple = 0,
			HueAdjustmentRed = 0,
			HueAdjustmentYellow = 0,
			LuminanceAdjustmentAqua = 100,
			LuminanceAdjustmentBlue = 100,
			LuminanceAdjustmentGreen = 0,
			LuminanceAdjustmentMagenta = 0,
			LuminanceAdjustmentOrange = 0,
			LuminanceAdjustmentPurple = 6,
			LuminanceAdjustmentRed = 0,
			LuminanceAdjustmentYellow = 0,
			LuminanceSmoothing = 0,
			ParametricDarks = -9,
			ParametricHighlightSplit = 75,
			ParametricHighlights = 1,
			ParametricLights = 12,
			ParametricMidtoneSplit = 50,
			ParametricShadowSplit = 25,
			ParametricShadows = 0,
			RedHue = 0,
			RedSaturation = 0,
			Saturation = 1,
			SaturationAdjustmentAqua = 100,
			SaturationAdjustmentBlue = 100,
			SaturationAdjustmentGreen = 0,
			SaturationAdjustmentMagenta = 0,
			SaturationAdjustmentOrange = 25,
			SaturationAdjustmentPurple = 0,
			SaturationAdjustmentRed = 22,
			SaturationAdjustmentYellow = 62,
			ShadowTint = 0,
			Shadows = 12,
			SharpenDetail = 25,
			SharpenEdgeMasking = 0,
			SharpenRadius = 1,
			Sharpness = 34,
			SplitToningBalance = 0,
			SplitToningHighlightHue = 233,
			SplitToningHighlightSaturation = 19,
			SplitToningShadowHue = 233,
			SplitToningShadowSaturation = 12,
			ToneCurve = {
				0,
				0,
				32,
				22,
				64,
				56,
				128,
				128,
				192,
				196,
				255,
				255,
			},
			ToneCurveName = "Medium Contrast",
			Vibrance = 4,
			VignetteAmount = -20,
			VignetteMidpoint = 50,
		},
		uuid = "3D62A9D1-08C4-4604-A83D-9F3AC57DFB43",
	},
	version = 0,
}
